X:1
T:Come all y'united-Irishmen, and listen unto me [1]
M:6/8
L:1/8
R:Air
N:"Allegretto"
S:Stanford/Petrie (1905), No. 463
Z:AK/Fiddler's Companion
K:Gmin
d/c/ | B2G A2F | G2F D2C | D=EF G2G | G3 G2F | G2G B2c | d2c f2d |
c2A F2A | (B3B2)A | G2G B2c | d2c f2d | c2A FGA | (B3B2) d/c/ |
B2G A2F | G2F D2C | DEF G2G | G3 G2 ||

